flaticon/medical/medicine.svg

<svg xmlns="http://www.w3.org/2000/svg" width="32" height="32" viewBox="0 0 24 24">
    <path d="M 22.746094 15.507812 L 18.933594 13.117188 C 18.765625 13.011719 18.667969 12.839844 18.667969 12.640625 C 18.667969 12.4375 18.765625 12.265625 18.933594 12.160156 L 22.746094 9.773438 C 23.398438 9.363281 23.59375 8.5 23.1875 7.851562 L 21.15625 4.609375 C 20.960938 4.292969 20.648438 4.074219 20.28125 3.992188 C 19.914062 3.90625 19.539062 3.976562 19.222656 4.179688 L 16.183594 6.128906 C 16.003906 6.242188 15.789062 6.25 15.605469 6.152344 C 15.421875 6.050781 15.308594 5.863281 15.308594 5.65625 L 15.308594 1.394531 C 15.308594 0.625 14.683594 0 13.917969 0 L 10.082031 0 C 9.316406 0 8.691406 0.625 8.691406 1.394531 L 8.691406 5.679688 C 8.691406 5.886719 8.582031 6.074219 8.398438 6.171875 C 8.214844 6.273438 8 6.269531 7.824219 6.15625 L 4.769531 4.246094 C 4.117188 3.835938 3.257812 4.035156 2.847656 4.6875 L 0.8125 7.933594 C 0.40625 8.585938 0.601562 9.449219 1.253906 9.855469 L 4.929688 12.160156 C 5.101562 12.265625 5.195312 12.441406 5.195312 12.640625 C 5.195312 12.839844 5.101562 13.011719 4.929688 13.117188 L 1.253906 15.421875 C 0.601562 15.828125 0.40625 16.691406 0.8125 17.34375 L 2.847656 20.59375 C 3.253906 21.242188 4.117188 21.441406 4.769531 21.03125 L 7.824219 19.121094 C 8 19.007812 8.214844 19.003906 8.398438 19.105469 C 8.582031 19.207031 8.691406 19.390625 8.691406 19.601562 L 8.691406 22.605469 C 8.691406 23.375 9.316406 24 10.082031 24 L 13.917969 24 C 14.683594 24 15.308594 23.375 15.308594 22.605469 L 15.308594 19.597656 C 15.308594 19.386719 15.421875 19.199219 15.605469 19.097656 C 15.789062 19 16.007812 19.007812 16.183594 19.121094 L 19.21875 21.09375 C 19.535156 21.296875 19.910156 21.363281 20.28125 21.285156 C 20.648438 21.203125 20.960938 20.980469 21.160156 20.664062 L 23.1875 17.425781 C 23.59375 16.777344 23.398438 15.914062 22.746094 15.507812 Z M 22.484375 16.988281 L 20.457031 20.222656 C 20.378906 20.351562 20.25 20.441406 20.101562 20.476562 C 19.953125 20.507812 19.800781 20.480469 19.671875 20.398438 L 16.636719 18.429688 C 16.199219 18.144531 15.667969 18.125 15.210938 18.371094 C 14.753906 18.621094 14.484375 19.078125 14.484375 19.597656 L 14.484375 22.605469 C 14.484375 22.917969 14.230469 23.171875 13.917969 23.171875 L 10.082031 23.171875 C 9.769531 23.171875 9.515625 22.917969 9.515625 22.605469 L 9.515625 19.601562 C 9.515625 19.085938 9.25 18.628906 8.800781 18.378906 C 8.585938 18.261719 8.355469 18.203125 8.121094 18.203125 C 7.867188 18.203125 7.613281 18.273438 7.382812 18.417969 L 4.328125 20.332031 C 4.066406 20.496094 3.714844 20.417969 3.550781 20.152344 L 1.515625 16.902344 C 1.433594 16.777344 1.410156 16.625 1.441406 16.476562 C 1.476562 16.328125 1.566406 16.203125 1.695312 16.125 L 5.371094 13.820312 C 5.78125 13.5625 6.023438 13.121094 6.023438 12.640625 C 6.023438 12.15625 5.78125 11.714844 5.371094 11.457031 L 1.695312 9.15625 C 1.429688 8.988281 1.347656 8.640625 1.515625 8.375 L 3.550781 5.125 C 3.714844 4.863281 4.066406 4.78125 4.328125 4.945312 L 7.382812 6.859375 C 7.820312 7.132812 8.347656 7.148438 8.796875 6.898438 C 9.25 6.648438 9.515625 6.191406 9.515625 5.679688 L 9.515625 1.394531 C 9.515625 1.082031 9.769531 0.828125 10.082031 0.828125 L 13.917969 0.828125 C 14.230469 0.828125 14.484375 1.082031 14.484375 1.394531 L 14.484375 5.65625 C 14.484375 6.171875 14.753906 6.628906 15.207031 6.878906 C 15.664062 7.125 16.195312 7.105469 16.628906 6.828125 L 19.671875 4.875 C 19.800781 4.792969 19.949219 4.765625 20.101562 4.796875 C 20.25 4.832031 20.375 4.921875 20.457031 5.050781 L 22.484375 8.289062 C 22.652344 8.554688 22.570312 8.902344 22.304688 9.070312 L 18.496094 11.457031 C 18.085938 11.714844 17.839844 12.15625 17.839844 12.640625 C 17.839844 13.121094 18.085938 13.5625 18.496094 13.820312 L 22.304688 16.207031 C 22.570312 16.375 22.652344 16.722656 22.484375 16.988281 Z M 22.484375 16.988281"/>
</svg>

<svg xmlns="http://www.w3.org/2000/svg" width="32" height="32" viewBox="0 0 24 24">
    <path d="M22.746 15.508l-3.812-2.39a.552.552 0 0 1-.266-.477c0-.204.098-.375.266-.48l3.812-2.388c.652-.41.848-1.273.442-1.921l-2.032-3.243a1.37 1.37 0 0 0-.875-.617 1.368 1.368 0 0 0-1.058.188l-3.04 1.949a.569.569 0 0 1-.874-.473V1.395c0-.77-.625-1.395-1.391-1.395h-3.836c-.766 0-1.39.625-1.39 1.395V5.68c0 .207-.11.394-.294.492a.552.552 0 0 1-.574-.016L4.77 4.246a1.394 1.394 0 0 0-1.922.441L.813 7.934a1.396 1.396 0 0 0 .44 1.921L4.93 12.16a.55.55 0 0 1 .265.48c0 .2-.093.372-.265.477l-3.676 2.305a1.396 1.396 0 0 0-.442 1.922l2.036 3.25c.406.648 1.27.847 1.922.437l3.054-1.91a.552.552 0 0 1 .574-.016.558.558 0 0 1 .293.497v3.003c0 .77.625 1.395 1.391 1.395h3.836c.766 0 1.39-.625 1.39-1.395v-3.007a.567.567 0 0 1 .876-.477l3.035 1.973a1.393 1.393 0 0 0 1.941-.43l2.027-3.238a1.393 1.393 0 0 0-.44-1.918zm-.262 1.48l-2.027 3.235a.565.565 0 0 1-.355.254.575.575 0 0 1-.43-.079l-3.035-1.968a1.376 1.376 0 0 0-1.426-.059c-.457.25-.727.707-.727 1.227v3.007a.567.567 0 0 1-.566.567h-3.836a.567.567 0 0 1-.566-.567v-3.003a1.38 1.38 0 0 0-.715-1.223 1.383 1.383 0 0 0-1.418.04l-3.055 1.913a.564.564 0 0 1-.777-.18l-2.035-3.25a.56.56 0 0 1 .18-.777L5.37 13.82c.41-.258.652-.699.652-1.18 0-.484-.242-.925-.652-1.183l-3.676-2.3a.565.565 0 0 1-.18-.782l2.036-3.25a.568.568 0 0 1 .777-.18L7.383 6.86c.437.274.965.29 1.414.04.453-.25.719-.708.719-1.22V1.396c0-.313.254-.567.566-.567h3.836c.312 0 .566.254.566.567v4.261c0 .516.27.973.723 1.223.457.246.988.226 1.422-.05l3.043-1.954a.571.571 0 0 1 .43-.078.575.575 0 0 1 .355.254l2.027 3.238a.565.565 0 0 1-.18.781l-3.808 2.387a1.39 1.39 0 0 0 0 2.363l3.809 2.387a.565.565 0 0 1 .18.781zm0 0"/>
</svg>
